app/assets/v2/images/avatar/HairStyle/womanhair5-F0E6FF.svg

<svg xmlns="http://www.w3.org/2000/svg" style="isolation:isolate" width="899.2" height="1499.2"><defs><clipPath id="a"><path d="M0 0h899.2v1499.2H0z"/></clipPath></defs><g clip-path="url(#a)"><path d="M820.5 1022.4c11.4 0 20.4-9.7 19.5-21.1l-49.3-625c-4.5-131-100.2-209.2-189-253.7-94.8-47.6-207.5-47.6-302.3 0C210.7 167 115 245.2 110.5 376.2l-49.3 625c-.9 11.4 8.1 21.1 19.5 21.1H210c10.8 0 19.6-8.8 19.6-19.6V487.2c0-33.2 26.9-60 60-60h322c33.2 0 60 26.9 60 60v515.5c0 10.8 8.8 19.6 19.6 19.6h129.3v.1z" fill="#F0E6FF" vector-effect="non-scaling-stroke" stroke-width="26.9" stroke="#000" stroke-miterlimit="10"/></g></svg>

<?xml version="1.0" standalone="no"?><!-- Generator: Gravit.io --><svg xmlns="http://www.w3.org/2000/svg" xmlns:xlink="http://www.w3.org/1999/xlink" style="isolation:isolate" viewBox="0 0 899.2 1499.2" width="899.2" height="1499.2"><defs><clipPath id="_clipPath_ZceS6n8jAj0tztgnjeki9flg2h8M4lkN"><rect width="899.2" height="1499.2"/></clipPath></defs><g clip-path="url(#_clipPath_ZceS6n8jAj0tztgnjeki9flg2h8M4lkN)"><path d=" M 820.5 1022.4 C 831.9 1022.4 840.9 1012.7 840 1001.3 L 790.7 376.3 C 786.2 245.3 690.5 167.1 601.7 122.6 C 506.9 75 394.2 75 299.4 122.6 C 210.7 167 115 245.2 110.5 376.2 L 61.2 1001.2 C 60.3 1012.6 69.3 1022.3 80.7 1022.3 L 210 1022.3 C 220.8 1022.3 229.6 1013.5 229.6 1002.7 L 229.6 487.2 C 229.6 454 256.5 427.2 289.6 427.2 L 450.6 427.2 L 611.6 427.2 C 644.8 427.2 671.6 454.1 671.6 487.2 L 671.6 1002.7 C 671.6 1013.5 680.4 1022.3 691.2 1022.3 L 820.5 1022.3 L 820.5 1022.4 Z " fill="rgb(240,230,255)" vector-effect="non-scaling-stroke" stroke-width="26.9" stroke="rgb(0,0,0)" stroke-linejoin="miter" stroke-linecap="butt" stroke-miterlimit="10"/></g></svg>
